public/tiktok.svg

<svg width="14" height="13" viewBox="0 0 14 13" fill="none" xmlns="http://www.w3.org/2000/svg">
<path d="M13.0467 3.41568V6.13544C11.8233 6.0131 10.6595 5.55823 9.6776 4.82104V7.8545C9.6776 10.2731 7.71385 12.2337 5.29524 12.2337C2.87663 12.2337 0.916016 10.27 0.916016 7.85137C0.916016 5.82174 2.31197 4.05876 4.28513 3.58821V6.5056C3.54167 7.06398 3.39109 8.12115 3.94947 8.86461C4.50786 9.60807 5.56502 9.75865 6.30848 9.20027C6.73198 8.88343 6.98293 8.38151 6.98293 7.85137V0.103027H9.73406C10.0195 1.80013 11.3496 3.13021 13.0467 3.41568Z" fill="#39FCBF"/>
</svg>

<svg xmlns="http://www.w3.org/2000/svg" width="14" height="13" fill="none" xmlns:v="https://vecta.io/nano"><path d="M13.047 3.416v2.72c-1.223-.122-2.387-.577-3.369-1.314v3.033c0 2.419-1.964 4.379-4.382 4.379S.916 10.27.916 7.851c0-2.03 1.396-3.793 3.369-4.263v2.917c-.743.558-.894 1.616-.336 2.359s1.616.894 2.359.336a1.69 1.69 0 0 0 .674-1.349V.103h2.751a4.04 4.04 0 0 0 3.313 3.313z" fill="#39fcbf"/></svg>
